svg/o-list.svg

<svg xmlns="http://www.w3.org/2000/svg" viewBox="0 0 64 41" enable-background="new 0 0 64 41"><style type="text/css">.st0{fill:#343434;}</style><title>o-list</title><desc>Created with Sketch.</desc><path class="st0" d="M15 7h46c1.7 0 3-1.3 3-3s-1.3-3-3-3h-46c-1.7 0-3 1.3-3 3s1.3 3 3 3zM61 17h-46c-1.7 0-3 1.3-3 3s1.3 3 3 3h46c1.7 0 3-1.3 3-3s-1.3-3-3-3zM61 33h-46c-1.7 0-3 1.3-3 3s1.3 3 3 3h46c1.7 0 3-1.3 3-3s-1.3-3-3-3zM5.7 6.9h-1.5v-6.5h-1c-.5.3-1.1.4-1.8.6v.9h1.4v5h-1.7v1.1h4.6v-1.1zM2.7 22.9c1.5-1.6 2.8-3 2.8-4.3 0-1.4-.9-2.3-2.4-2.3-1 0-1.7.4-2.4 1.2l.8.8c.4-.5.9-.9 1.5-.9.8 0 1.3.5 1.3 1.3 0 1.2-1.3 2.5-3.5 4.6v.7h5.2v-1.2h-2.1l-1.2.1zM4.2 36c.8-.4 1.3-.9 1.3-1.8 0-1.3-1-2-2.5-2-.9 0-1.6.4-2.3 1l.7.8c.5-.4.9-.7 1.5-.7.7 0 1.1.4 1.1 1 0 .7-.5 1.2-2 1.2v1c1.7 0 2.2.5 2.2 1.3 0 .7-.6 1.2-1.4 1.2s-1.4-.4-1.8-.8l-.7.9c.5.6 1.4 1.1 2.6 1.1 1.5 0 2.7-.8 2.7-2.2.1-1.1-.5-1.7-1.4-2z"/></svg>

<?xml version="1.0" encoding="utf-8"?>
<!-- Generator: Adobe Illustrator 21.0.0, SVG Export Plug-In . SVG Version: 6.00 Build 0)  -->
<svg version="1.1" id="Layer_1" xmlns="http://www.w3.org/2000/svg" xmlns:xlink="http://www.w3.org/1999/xlink" x="0px" y="0px"
	 viewBox="0 0 64 41" style="enable-background:new 0 0 64 41;" xml:space="preserve">
<style type="text/css">
	.st0{fill:#343434;}
</style>
<title>o-list</title>
<desc>Created with Sketch.</desc>
<g>
	<path class="st0" d="M15,7h46c1.7,0,3-1.3,3-3s-1.3-3-3-3H15c-1.7,0-3,1.3-3,3S13.3,7,15,7z"/>
	<path class="st0" d="M61,17H15c-1.7,0-3,1.3-3,3s1.3,3,3,3h46c1.7,0,3-1.3,3-3S62.7,17,61,17z"/>
	<path class="st0" d="M61,33H15c-1.7,0-3,1.3-3,3s1.3,3,3,3h46c1.7,0,3-1.3,3-3S62.7,33,61,33z"/>
	<path class="st0" d="M5.7,6.9H4.2V0.4h-1C2.7,0.7,2.1,0.8,1.4,1v0.9h1.4v5H1.1V8h4.6V6.9z"/>
	<path class="st0" d="M2.7,22.9c1.5-1.6,2.8-3,2.8-4.3c0-1.4-0.9-2.3-2.4-2.3c-1,0-1.7,0.4-2.4,1.2l0.8,0.8c0.4-0.5,0.9-0.9,1.5-0.9
		c0.8,0,1.3,0.5,1.3,1.3c0,1.2-1.3,2.5-3.5,4.6V24H6v-1.2H3.9C3.6,22.8,3,22.9,2.7,22.9z"/>
	<path class="st0" d="M4.2,36c0.8-0.4,1.3-0.9,1.3-1.8c0-1.3-1-2-2.5-2c-0.9,0-1.6,0.4-2.3,1L1.4,34c0.5-0.4,0.9-0.7,1.5-0.7
		c0.7,0,1.1,0.4,1.1,1c0,0.7-0.5,1.2-2,1.2v1c1.7,0,2.2,0.5,2.2,1.3c0,0.7-0.6,1.2-1.4,1.2S1.4,38.6,1,38.2l-0.7,0.9
		c0.5,0.6,1.4,1.1,2.6,1.1c1.5,0,2.7-0.8,2.7-2.2C5.7,36.9,5.1,36.3,4.2,36z"/>
</g>
</svg>
